X: 538
P: Longways for as many as will
M: 6/4
L: 1/4
K: G
g |\
^f2d (=e/^f/)gd | e2c (d/e/f)c |
d>gf d>cB | B3- B2 |]\
(=E/F/G)D =E2G | (A/B/c)A d2B |\
(c/d/e)d B>AG | G3- G2 |]

